packages/core/src/svgs/umb.svg

<svg width="24" height="24" viewBox="0 0 24 24" fill="none" xmlns="http://www.w3.org/2000/svg">
<g clip-path="url(#clip0_31_20157)">
<path d="M0 0H24V24H0V0Z" fill="#0E92DF"/>
<path d="M12.0001 6C12.3301 6 12.6001 6.24 12.6644 6.55714C14.0015 6.68571 15.2486 7.21286 16.2858 8.07429C16.3581 8.0082 16.444 7.95869 16.5374 7.92923C16.6308 7.89976 16.7295 7.89105 16.8267 7.90371C16.9238 7.91636 17.017 7.95007 17.0998 8.00248C17.1825 8.05489 17.2528 8.12474 17.3058 8.20714C17.3868 8.33443 17.4247 8.48442 17.4139 8.63492C17.4031 8.78542 17.3442 8.92845 17.2458 9.04286C18.0948 10.0962 18.6137 11.377 18.7372 12.7243C18.8915 12.7543 19.0329 12.8357 19.1315 12.96C19.2344 13.0886 19.2858 13.2429 19.2858 13.4014C19.2858 13.7829 18.9815 14.0871 18.6044 14.0871C18.5041 14.0879 18.405 14.0659 18.3144 14.0228C18.2239 13.9798 18.1442 13.9168 18.0815 13.8386C18.0172 13.7583 17.9716 13.6648 17.9479 13.5647C17.9241 13.4647 17.9229 13.3606 17.9444 13.26L16.0801 12.3429C16.0186 12.4168 15.9421 12.4769 15.8557 12.519C15.7692 12.5611 15.6748 12.5844 15.5786 12.5871C15.4825 12.5911 15.3866 12.5739 15.2978 12.5369C15.2089 12.4999 15.1293 12.4439 15.0644 12.3729L12.6729 13.3157C12.6901 13.4871 12.6515 13.6543 12.5572 13.7914C12.468 13.9311 12.3283 14.0309 12.1672 14.07V16.1786C12.3172 16.2129 12.4501 16.3029 12.5444 16.4271C12.65 16.564 12.7025 16.7343 12.6922 16.9069C12.682 17.0794 12.6097 17.2424 12.4886 17.3657C12.4248 17.4305 12.3488 17.482 12.2649 17.5171C12.181 17.5522 12.091 17.5703 12.0001 17.5703C11.9091 17.5703 11.8191 17.5522 11.7352 17.5171C11.6514 17.482 11.5753 17.4305 11.5115 17.3657C11.3829 17.2329 11.3058 17.0486 11.3058 16.8643C11.3058 16.53 11.5329 16.2557 11.8329 16.1786V14.07C11.6744 14.0271 11.5329 13.9329 11.4386 13.7914C11.3465 13.6526 11.3069 13.4854 11.3272 13.32L8.99151 12.39C8.93165 12.4765 8.85246 12.5479 8.76022 12.5985C8.66797 12.6491 8.56521 12.6775 8.46008 12.6814C8.3548 12.6851 8.25015 12.6637 8.15477 12.619C8.05939 12.5743 7.976 12.5076 7.9115 12.4243L6.06008 13.2771C6.07777 13.3764 6.07392 13.4782 6.04878 13.5759C6.02364 13.6735 5.97779 13.7645 5.91436 13.8429C5.85426 13.9152 5.77975 13.9742 5.69557 14.0162C5.6114 14.0581 5.51941 14.0821 5.42547 14.0865C5.33152 14.0909 5.23769 14.0758 5.14993 14.0419C5.06218 14.0081 4.98244 13.9564 4.91579 13.89C4.85157 13.8259 4.8007 13.7498 4.76612 13.6659C4.73154 13.582 4.71395 13.4921 4.71436 13.4014C4.71436 13.2429 4.77008 13.0886 4.86865 12.9643C4.96722 12.8357 5.10865 12.7543 5.26293 12.7243C5.39151 11.37 5.90579 10.1057 6.75436 9.05143C6.68379 8.96974 6.63299 8.8729 6.60588 8.76841C6.57878 8.66393 6.57611 8.5546 6.59807 8.44891C6.62004 8.34322 6.66606 8.24402 6.73255 8.15898C6.79904 8.07395 6.88423 8.00537 6.98151 7.95857C7.10119 7.90425 7.23431 7.88666 7.364 7.90802C7.49369 7.92938 7.61413 7.98873 7.71008 8.07857C8.73757 7.2174 10.0014 6.68705 11.3358 6.55714C11.3701 6.39857 11.4515 6.25714 11.5715 6.15857C11.6915 6.05571 11.8415 6 12.0001 6ZM11.6529 6.68571C11.6529 6.78429 11.6872 6.87429 11.7558 6.94286C11.7878 6.97591 11.8261 7.00219 11.8684 7.02014C11.9107 7.03809 11.9562 7.04734 12.0022 7.04734C12.0482 7.04734 12.0937 7.03809 12.1361 7.02014C12.1784 7.00219 12.2167 6.97591 12.2486 6.94286C12.2981 6.89279 12.3318 6.82934 12.3455 6.76033C12.3593 6.69133 12.3525 6.61981 12.3261 6.55461C12.2996 6.48941 12.2547 6.43339 12.1967 6.39347C12.1388 6.35355 12.0704 6.33149 12.0001 6.33C11.9536 6.3303 11.9076 6.33994 11.8649 6.35835C11.8222 6.37675 11.7837 6.40355 11.7515 6.43714C11.6857 6.50491 11.6489 6.59557 11.6486 6.69L11.6529 6.68571ZM14.1215 9.50571L16.0715 8.71714C16.0458 8.54571 16.0715 8.42571 16.1015 8.35286C15.1242 7.52794 13.9198 7.01842 12.6472 6.89143C12.6386 6.91714 12.6044 7.03286 12.5101 7.14L14.1258 9.50571H14.1215ZM9.91722 9.49286L11.4901 7.14857C11.4277 7.07284 11.3811 6.98542 11.3529 6.89143C10.0844 7.01571 8.88008 7.52571 7.89865 8.35286C7.92436 8.42571 7.94579 8.55857 7.93293 8.67857L9.91722 9.49286ZM12.1629 9.84857C12.3344 9.88286 12.4844 9.99 12.5829 10.1271L13.8129 9.63429L12.2401 7.33286L12.1672 7.35857V9.84429H12.1629V9.84857ZM11.4601 10.1271C11.5458 9.99857 11.6829 9.9 11.8329 9.85714V7.35857L11.7686 7.33286L10.2258 9.62571L11.4601 10.1271ZM16.7401 8.94C16.9329 8.94 17.0915 8.78143 17.0915 8.58429C17.0917 8.48977 17.0548 8.39894 16.9886 8.33143C16.9566 8.29771 16.9181 8.27087 16.8753 8.25252C16.8326 8.23417 16.7866 8.22471 16.7401 8.22471C16.6936 8.22471 16.6476 8.23417 16.6048 8.25252C16.5621 8.27087 16.5235 8.29771 16.4915 8.33143C16.4582 8.36538 16.432 8.40558 16.4144 8.44971C16.3967 8.49385 16.388 8.54104 16.3886 8.58857C16.3886 8.78143 16.5472 8.94 16.7401 8.94ZM7.26008 8.94C7.45293 8.94 7.61151 8.78143 7.61151 8.58429C7.61174 8.48977 7.5748 8.39894 7.50865 8.33143C7.47668 8.29838 7.43839 8.2721 7.39605 8.25415C7.35372 8.2362 7.3082 8.22695 7.26222 8.22695C7.21624 8.22695 7.17072 8.2362 7.12839 8.25415C7.08605 8.2721 7.04776 8.29838 7.01579 8.33143C6.98252 8.36538 6.9563 8.40558 6.93865 8.44971C6.92099 8.49385 6.91225 8.54104 6.91293 8.58857C6.91293 8.78143 7.06722 8.94 7.26008 8.94ZM7.26008 9.27429C7.18248 9.27296 7.10568 9.25847 7.03293 9.23143C6.21367 10.2337 5.71093 11.457 5.58865 12.7457C5.64436 12.7586 5.79865 12.8143 5.92293 12.9729L7.77436 12.1157C7.75396 11.9964 7.76452 11.8739 7.80505 11.7598C7.84557 11.6457 7.91469 11.544 8.00579 11.4643C8.09591 11.3871 8.20494 11.3354 8.32168 11.3143C8.43841 11.2932 8.55866 11.3036 8.67008 11.3443L9.72436 9.78L7.80865 9C7.71436 9.13714 7.50865 9.28286 7.26436 9.28286V9.27857L7.26008 9.27429ZM15.3215 11.2543C15.4352 11.2078 15.5597 11.1941 15.6808 11.2145C15.802 11.2349 15.915 11.2888 16.0072 11.37C16.1006 11.4513 16.1703 11.5564 16.2088 11.6741C16.2472 11.7918 16.2531 11.9178 16.2258 12.0386L18.0858 12.9557C18.2058 12.81 18.3558 12.7543 18.4115 12.7414C18.2876 11.4557 17.7849 10.2356 16.9672 9.23571C16.8944 9.26143 16.5172 9.38143 16.2129 9.02143L14.3186 9.78857L15.3215 11.2543ZM8.94865 11.5329L8.99151 11.5886L11.3358 10.6371C11.3186 10.5514 11.3315 10.47 11.3358 10.4357L10.0415 9.90429L8.94436 11.5329H8.94865ZM14.9658 11.5671C14.9909 11.5248 15.0195 11.4846 15.0515 11.4471L14.0058 9.91714L12.7072 10.44C12.7115 10.47 12.7201 10.56 12.7072 10.6414L14.9658 11.5671ZM12.0215 10.9071C12.1204 10.9071 12.2152 10.8679 12.2852 10.7979C12.3551 10.728 12.3944 10.6332 12.3944 10.5343C12.3944 10.4354 12.3551 10.3406 12.2852 10.2706C12.2152 10.2007 12.1204 10.1614 12.0215 10.1614C11.9272 10.1614 11.8329 10.2043 11.7644 10.2729C11.6961 10.3428 11.6577 10.4366 11.6572 10.5343C11.6572 10.7486 11.8286 10.9071 12.0215 10.9071ZM11.4472 13.0029C11.5886 12.8014 11.7686 12.7457 11.8329 12.7329V11.2114C11.6829 11.1686 11.5501 11.0743 11.4601 10.9457L9.11151 11.8971C9.12436 11.9829 9.11151 12.0471 9.11151 12.0771L11.4472 13.0029ZM12.1672 12.7329C12.2315 12.75 12.4072 12.7971 12.5529 13.0029L14.9058 12.0729C14.8801 11.9871 14.8801 11.8886 14.8801 11.8886L12.5829 10.9457C12.4844 11.0871 12.3344 11.1857 12.1672 11.2243V12.7329ZM15.5615 12.2529C15.6304 12.2527 15.6976 12.2318 15.7544 12.1929C15.8125 12.1537 15.8577 12.0982 15.8844 12.0334C15.9111 11.9686 15.918 11.8973 15.9044 11.8286C15.8897 11.7603 15.8554 11.6977 15.8058 11.6486C15.7579 11.5994 15.6963 11.5658 15.6291 11.5521C15.5618 11.5383 15.492 11.5451 15.4286 11.5714C15.3642 11.5977 15.309 11.6424 15.2701 11.7C15.2328 11.7589 15.2134 11.8274 15.2144 11.8971C15.2144 12.0943 15.3686 12.2529 15.5615 12.2529ZM8.43865 12.3471C8.63579 12.3471 8.79008 12.1886 8.79008 11.9957C8.79076 11.9482 8.78202 11.901 8.76437 11.8569C8.74671 11.8127 8.72049 11.7725 8.68722 11.7386C8.65525 11.7055 8.61696 11.6792 8.57462 11.6613C8.53229 11.6433 8.48677 11.6341 8.44079 11.6341C8.39481 11.6341 8.34929 11.6433 8.30696 11.6613C8.26462 11.6792 8.22633 11.7055 8.19436 11.7386C8.16109 11.7725 8.13487 11.8127 8.11722 11.8569C8.09956 11.901 8.09082 11.9482 8.0915 11.9957C8.0915 12.1886 8.24579 12.3471 8.43865 12.3471ZM18.6044 13.7571C18.8015 13.7571 18.9558 13.5986 18.9558 13.4014C18.9556 13.307 18.9187 13.2163 18.8529 13.1486C18.8206 13.1154 18.7819 13.089 18.7392 13.071C18.6966 13.053 18.6507 13.0438 18.6044 13.0438C18.558 13.0438 18.5122 13.053 18.4695 13.071C18.4268 13.089 18.3881 13.1154 18.3558 13.1486C18.289 13.2174 18.252 13.3098 18.2529 13.4057C18.2529 13.5986 18.4158 13.7571 18.6044 13.7571ZM12.0001 13.7571C12.1929 13.7571 12.3472 13.5986 12.3472 13.4014C12.3463 13.3084 12.3095 13.2193 12.2444 13.1529C12.2125 13.1205 12.1744 13.0947 12.1325 13.0772C12.0906 13.0596 12.0455 13.0506 12.0001 13.0506C11.9546 13.0506 11.9096 13.0596 11.8677 13.0772C11.8257 13.0947 11.7877 13.1205 11.7558 13.1529C11.6907 13.2193 11.6538 13.3084 11.6529 13.4014C11.6529 13.5986 11.8072 13.7571 12.0001 13.7571ZM5.39579 13.7571C5.58436 13.7571 5.73865 13.5986 5.73865 13.4014C5.74004 13.3075 5.70466 13.2168 5.64008 13.1486C5.60811 13.1155 5.56981 13.0892 5.52748 13.0713C5.48514 13.0533 5.43963 13.0441 5.39365 13.0441C5.34767 13.0441 5.30215 13.0533 5.25982 13.0713C5.21748 13.0892 5.17919 13.1155 5.14722 13.1486C5.11395 13.1825 5.08773 13.2227 5.07007 13.2669C5.05242 13.311 5.04368 13.3582 5.04436 13.4057C5.04436 13.5986 5.19865 13.7571 5.39579 13.7571ZM12.0001 17.2286C12.2015 17.2286 12.3644 17.0657 12.3644 16.8643C12.365 16.7651 12.3265 16.6696 12.2572 16.5986C12.2236 16.5645 12.1836 16.5375 12.1394 16.5191C12.0953 16.5007 12.0479 16.4913 12.0001 16.4914C11.9489 16.484 11.8966 16.4878 11.847 16.5026C11.7974 16.5174 11.7517 16.5428 11.7129 16.5771C11.6732 16.6127 11.6416 16.6563 11.6201 16.7051C11.5987 16.7539 11.5879 16.8067 11.5886 16.86C11.5896 16.9128 11.6016 16.9648 11.6237 17.0128C11.6458 17.0607 11.6777 17.1036 11.7172 17.1386C11.7554 17.1726 11.8003 17.1982 11.8491 17.2137C11.8978 17.2292 11.9493 17.2343 12.0001 17.2286Z" fill="#FBFBFB"/>
</g>
<defs>
<clipPath id="clip0_31_20157">
<rect width="24" height="24" fill="white"/>
</clipPath>
</defs>
</svg>

<svg xmlns="http://www.w3.org/2000/svg" width="24" height="24" fill="none" viewBox="0 0 24 24"><g clip-path="url(#a)"><path fill="#0E92DF" d="M0 0h24v24H0z"/><path fill="#FBFBFB" d="M12 6c.33 0 .6.24.664.557a6.64 6.64 0 0 1 3.622 1.517.673.673 0 0 1 1.02.133.7.7 0 0 1-.06.836 6.87 6.87 0 0 1 1.491 3.681c.155.03.296.112.395.236a.7.7 0 0 1 .154.441.681.681 0 0 1-1.205.438.7.7 0 0 1-.137-.579l-1.864-.917a.68.68 0 0 1-1.016.03l-2.391.943a.7.7 0 0 1-.116.475.64.64 0 0 1-.39.279v2.109c.15.034.283.124.377.248a.716.716 0 0 1-.28 1.09.69.69 0 0 1-.752-.151.73.73 0 0 1-.206-.502c0-.334.227-.608.527-.685V14.07a.683.683 0 0 1-.506-.75l-2.335-.93a.68.68 0 0 1-.837.229.7.7 0 0 1-.243-.195l-1.852.853a.7.7 0 0 1-.146.566.678.678 0 0 1-1.2-.442c0-.158.056-.312.155-.437a.65.65 0 0 1 .394-.24 6.86 6.86 0 0 1 1.491-3.673.703.703 0 0 1 .228-1.092.66.66 0 0 1 .728.12 6.65 6.65 0 0 1 3.626-1.522.7.7 0 0 1 .236-.398A.65.65 0 0 1 12 6m-.347.686a.356.356 0 0 0 .35.361.34.34 0 0 0 .246-.104A.36.36 0 0 0 12 6.33a.35.35 0 0 0-.248.107.37.37 0 0 0-.103.253zm2.468 2.82 1.95-.789a.7.7 0 0 1 .03-.364 6.33 6.33 0 0 0-3.454-1.462c-.008.026-.043.142-.137.249l1.616 2.366zm-4.204-.013 1.573-2.344a.7.7 0 0 1-.137-.258 6.3 6.3 0 0 0-3.454 1.462.8.8 0 0 1 .034.326zm2.246.356a.7.7 0 0 1 .42.278l1.23-.493-1.573-2.301-.073.026v2.485h-.004zm-.703.278a.68.68 0 0 1 .373-.27V7.36l-.064-.026-1.543 2.293zm5.28-1.187a.354.354 0 0 0 .352-.356.36.36 0 0 0-.352-.36.34.34 0 0 0-.248.107.359.359 0 0 0 .248.609m-9.48 0a.354.354 0 0 0 .352-.356.36.36 0 0 0-.216-.33.34.34 0 0 0-.38.077.36.36 0 0 0-.103.258.35.35 0 0 0 .347.351m0 .334a.7.7 0 0 1-.227-.043 6.53 6.53 0 0 0-1.444 3.515c.055.013.21.068.334.227l1.851-.857a.71.71 0 0 1 .232-.652.67.67 0 0 1 .664-.12L9.724 9.78 7.81 9a.69.69 0 0 1-.545.283v-.004zm8.062 1.98a.66.66 0 0 1 .685.116.69.69 0 0 1 .219.669l1.86.917a.65.65 0 0 1 .326-.215 6.53 6.53 0 0 0-1.445-3.505.67.67 0 0 1-.754-.215l-1.894.768zm-6.373.279.043.056 2.344-.952c-.017-.086-.005-.167 0-.201l-1.295-.532-1.097 1.629zm6.017.034a1 1 0 0 1 .086-.12l-1.046-1.53-1.299.523a.8.8 0 0 1 0 .201zm-2.944-.66a.373.373 0 1 0 0-.746.37.37 0 0 0-.365.373c0 .215.172.373.364.373m-.575 2.096a.64.64 0 0 1 .386-.27V11.21a.7.7 0 0 1-.373-.265l-2.348.951c.012.086 0 .15 0 .18zm.72-.27c.065.017.24.064.386.27l2.353-.93c-.026-.086-.026-.184-.026-.184l-2.297-.943a.7.7 0 0 1-.416.278zm3.395-.48a.356.356 0 0 0 .343-.424.36.36 0 0 0-.276-.277.352.352 0 0 0-.359.148.36.36 0 0 0-.056.197.35.35 0 0 0 .348.356m-7.123.094a.35.35 0 0 0 .351-.351.36.36 0 0 0-.215-.335.34.34 0 0 0-.38.078.36.36 0 0 0-.104.257.35.35 0 0 0 .348.351m10.165 1.41a.35.35 0 0 0 .352-.356.36.36 0 0 0-.217-.33.35.35 0 0 0-.383.078.356.356 0 0 0 .249.608m-6.604 0a.35.35 0 0 0 .347-.356.36.36 0 0 0-.214-.324.34.34 0 0 0-.377.076.36.36 0 0 0-.103.248.35.35 0 0 0 .347.356m-6.604 0a.35.35 0 0 0 .343-.356.36.36 0 0 0-.099-.252.34.34 0 0 0-.493 0 .36.36 0 0 0-.103.257.35.35 0 0 0 .352.351M12 17.23a.364.364 0 0 0 .364-.365c.001-.099-.038-.194-.107-.265A.36.36 0 0 0 12 16.49a.36.36 0 0 0-.38.214.37.37 0 0 0 .097.434.36.36 0 0 0 .283.09"/></g><defs><clipPath id="a"><path fill="#fff" d="M0 0h24v24H0z"/></clipPath></defs></svg>
